firefox/mono-firefox-theme/theme/icons/folder-symbolic.svg

<?xml version="1.0" encoding="UTF-8"?>
<svg height="16px" viewBox="0 0 16 16" width="16px" xmlns="http://www.w3.org/2000/svg">
    <g fill="context-fill" stroke="context-stroke" fill-opacity="context-fill-opacity" stroke-opacity="context-stroke-opacity">
        <path d="m 1 4 v 1 h 8 v -1 z m 0 0"/>
        <path d="m 3 1 c -1.644531 0 -3 1.355469 -3 3 v 8 c 0 1.644531 1.355469 3 3 3 h 10 c 1.644531 0 3 -1.355469 3 -3 v -6 c 0 -1.644531 -1.355469 -3 -3 -3 h -3.585938 l -1.707031 -1.707031 c -0.1875 -0.1875 -0.441406 -0.292969 -0.707031 -0.292969 z m 0 2 h 3.585938 l 1.707031 1.707031 c 0.1875 0.1875 0.441406 0.292969 0.707031 0.292969 h 4 c 0.5625 0 1 0.4375 1 1 v 6 c 0 0.566406 -0.4375 1 -1 1 h -10 c -0.5625 0 -1 -0.433594 -1 -1 v -8 c 0 -0.5625 0.4375 -1 1 -1 z m 0 0"/>
    </g>
</svg>

<?xml version="1.0" encoding="UTF-8"?>
<svg height="16px" viewBox="0 0 16 16" width="16px" xmlns="http://www.w3.org/2000/svg">
    <g fill="context-fill" stroke="context-stroke" fill-opacity="context-fill-opacity" stroke-opacity="context-stroke-opacity">
        <path d="M2.99479 1C1.35312 1 0 2.35547 0 4V12C0 13.6445 1.35312 15 2.99479 15H12.9775C14.6191 15 15.9723 13.6445 15.9723 12V6C15.9723 4.35547 14.6191 3 12.9775 3H9.39769L7.69365 1.29297C7.50647 1.10547 7.25301 1 6.98784 1H2.99479ZM2.99479 3H6.5745L8.27857 4.70703C8.46574 4.89453 8.71921 5 8.98437 5H12.9775C13.539 5 13.9757 5.4375 13.9757 6V12C13.9757 12.5664 13.539 13 12.9775 13H2.99479C2.43327 13 1.99653 12.5664 1.99653 12V4C1.99653 3.4375 2.43327 3 2.99479 3Z"/>
    </g>
</svg>
